resources/haticons/SVG/fact_check.svg

<!-- Generated by IcoMoon.io -->
<svg version="1.1" xmlns="http://www.w3.org/2000/svg" width="24" height="24" viewBox="0 0 24 24">
<title>fact_check</title>
<path d="M20.016 3h-16.031q-0.797 0-1.383 0.586t-0.586 1.43v13.969q0 0.844 0.586 1.43t1.383 0.586h16.031q0.797 0 1.383-0.586t0.586-1.43v-13.969q0-0.844-0.586-1.43t-1.383-0.586zM9.984 17.016h-4.969v-2.016h4.969v2.016zM9.984 12.984h-4.969v-1.969h4.969v1.969zM9.984 9h-4.969v-2.016h4.969v2.016zM14.813 15l-2.813-2.859 1.406-1.406 1.406 1.453 3.188-3.188 1.406 1.406z"></path>
</svg>

<svg xmlns="http://www.w3.org/2000/svg" width="24" height="24"><path d="M20.016 3H3.985q-.797 0-1.383.586t-.586 1.43v13.969q0 .844.586 1.43t1.383.586h16.031q.797 0 1.383-.586t.586-1.43V5.016q0-.844-.586-1.43T20.016 3zM9.984 17.016H5.015V15h4.969v2.016zm0-4.032H5.015v-1.969h4.969v1.969zm0-3.984H5.015V6.984h4.969V9zm4.829 6L12 12.141l1.406-1.406 1.406 1.453L18 9l1.406 1.406z"/></svg>
